PortfolioPage/assets/software/painter.svg

<svg xmlns="http://www.w3.org/2000/svg" width="512" height="512" fill="none" viewBox="0 0 512 512">
  <g clip-path="url(#a)">
    <path fill="#1E3101" d="M90.6668 0H421.363c24.047 0 47.108 9.79726 64.111 27.2365 17.004 17.4392 26.556 41.0919 26.556 65.7547V419.009c0 24.663-9.552 48.315-26.556 65.754C468.471 502.203 445.41 512 421.363 512H90.6668c-24.0463 0-47.1078-9.797-64.1111-27.237C9.55236 467.324 0 443.672 0 419.009V92.9912c0-24.6628 9.55236-48.3155 26.5557-65.7547C43.559 9.79726 66.6205 0 90.6668 0Z"/>
    <path fill="#99E83F" d="M110.748 359.044V133.938c0-1.639.68-2.459 2.058-2.459 3.657 0 8.006-.058 13.048-.174 5.043-.116 10.481-.236 16.316-.359l18.552-.348c6.528-.123 12.995-.185 19.403-.185 17.404 0 32.057 2.234 43.959 6.702 10.747 3.72 20.547 9.858 28.684 17.963 6.898 7.023 12.229 15.497 15.626 24.838 3.215 9.088 4.846 18.686 4.815 28.354 0 18.793-4.236 34.293-12.708 46.5-8.528 12.27-20.515 21.568-34.349 26.642-15.416 5.689-31.703 8.493-48.085 8.28-5.042 0-8.593-.061-10.651-.184-2.058-.113-5.155-.175-9.271-.175v69.403c.1.735-.088 1.48-.522 2.074-.435.593-1.08.986-1.796 1.092-.255.041-.514.041-.769 0h-41.912c-1.598-.041-2.398-.973-2.398-2.858Zm47.397-185.296v72.927c2.97.239 5.718.355 8.242.349h11.33c8.313.122 16.596-1.066 24.557-3.525 6.806-2.073 12.888-6.106 17.524-11.62 4.463-5.397 6.694-12.912 6.694-22.544.173-6.812-1.561-13.533-4.995-19.366-3.625-5.65-8.857-10.019-14.987-12.512-7.982-3.177-16.508-4.672-25.067-4.396-5.494 0-10.36.058-14.596.174-4.236.116-7.157.291-8.762.523l.06-.01Zm242.487 153.243v28.886c0 2.582-.916 4.109-2.747 4.581-4.509 1.445-9.096 2.622-13.738 3.525-5.44.993-10.959 1.463-16.484 1.403-14.887 0-26.563-3.993-35.028-11.978-8.466-7.986-12.702-20.785-12.709-38.396v-87.365h-20.281c-1.828 0-2.748-1.025-2.748-3.167v-34.911c0-1.875 1-2.818 3.098-2.818h20.261c.226-3.99.513-8.628.859-13.915.35-5.278.8-10.565 1.379-15.852.579-5.288 1.079-9.571 1.539-12.85.219-.701.557-1.357.999-1.937.445-.573 1.041-1.004 1.718-1.24l40.913-5.246c.621-.189 1.287-.157 1.888.092.459.236.519.851.519 2.049-.459 5.404-.792 12.744-.999 22.021-.206 9.277-.436 18.257-.689 26.939h31.971c1.378 0 2.068.943 2.068 2.818v35.588c.081.559-.053 1.128-.374 1.587-.32.459-.803.772-1.345.872h-32.7v75.387c0 7.993 1.332 13.69 3.997 17.092 2.664 3.402 7.529 5.11 14.596 5.124 2.058 0 3.996-.052 5.845-.174 1.848-.123 3.656-.298 5.495-.533.307-.117.636-.162.963-.132.327.03.643.135.925.306.307.275.542.624.683 1.016.142.392.185.814.126 1.228Z"/>
  </g>
  <defs>
    <clipPath id="a">
      <path fill="#fff" d="M0 0h512v512H0z"/>
    </clipPath>
  </defs>
</svg>

<svg width="512" height="512" viewBox="0 0 512 512" fill="none" xmlns="http://www.w3.org/2000/svg">
<g clip-path="url(#clip0_423_62)">
<path d="M90.6668 0H421.363C445.41 0 468.471 9.79726 485.474 27.2365C502.478 44.6757 512.03 68.3284 512.03 92.9912V419.009C512.03 443.672 502.478 467.324 485.474 484.763C468.471 502.203 445.41 512 421.363 512H90.6668C66.6205 512 43.559 502.203 26.5557 484.763C9.55236 467.324 0 443.672 0 419.009L0 92.9912C0 68.3284 9.55236 44.6757 26.5557 27.2365C43.559 9.79726 66.6205 0 90.6668 0Z" fill="#1E3101"/>
<path d="M110.748 359.044V133.938C110.748 132.299 111.428 131.479 112.806 131.479C116.463 131.479 120.812 131.421 125.854 131.305C130.897 131.189 136.335 131.069 142.17 130.946L160.722 130.598C167.25 130.475 173.717 130.413 180.125 130.413C197.529 130.413 212.182 132.647 224.084 137.115C234.831 140.835 244.631 146.973 252.768 155.078C259.666 162.101 264.997 170.575 268.394 179.916C271.609 189.004 273.24 198.602 273.209 208.27C273.209 227.063 268.973 242.563 260.501 254.77C251.973 267.04 239.986 276.338 226.152 281.412C210.736 287.101 194.449 289.905 178.067 289.692C173.025 289.692 169.474 289.631 167.416 289.508C165.358 289.395 162.261 289.333 158.145 289.333V358.736C158.245 359.471 158.057 360.216 157.623 360.81C157.188 361.403 156.543 361.796 155.827 361.902C155.572 361.943 155.313 361.943 155.058 361.902H113.146C111.548 361.861 110.748 360.929 110.748 359.044ZM158.145 173.748V246.675C161.115 246.914 163.863 247.03 166.387 247.024H177.717C186.03 247.146 194.313 245.958 202.274 243.499C209.08 241.426 215.162 237.393 219.798 231.879C224.261 226.482 226.492 218.967 226.492 209.335C226.665 202.523 224.931 195.802 221.497 189.969C217.872 184.319 212.64 179.95 206.51 177.457C198.528 174.28 190.002 172.785 181.443 173.061C175.949 173.061 171.083 173.119 166.847 173.235C162.611 173.351 159.69 173.526 158.085 173.758L158.145 173.748Z" fill="#99E83F"/>
<path d="M400.632 326.991V355.877C400.632 358.459 399.716 359.986 397.885 360.458C393.376 361.903 388.789 363.08 384.147 363.983C378.707 364.976 373.188 365.446 367.663 365.386C352.776 365.386 341.1 361.393 332.635 353.408C324.169 345.422 319.933 332.623 319.926 315.012V227.647H299.645C297.817 227.647 296.897 226.622 296.897 224.48V189.569C296.897 187.694 297.897 186.751 299.995 186.751H320.256C320.482 182.761 320.769 178.123 321.115 172.836C321.465 167.558 321.915 162.271 322.494 156.984C323.073 151.696 323.573 147.413 324.033 144.134C324.252 143.433 324.59 142.777 325.032 142.197C325.477 141.624 326.073 141.193 326.75 140.957L367.663 135.711C368.284 135.522 368.95 135.554 369.551 135.803C370.01 136.039 370.07 136.654 370.07 137.852C369.611 143.256 369.278 150.596 369.071 159.873C368.865 169.15 368.635 178.13 368.382 186.812H400.353C401.731 186.812 402.421 187.755 402.421 189.63V225.218C402.502 225.777 402.368 226.346 402.047 226.805C401.727 227.264 401.244 227.577 400.702 227.677H368.002V303.064C368.002 311.057 369.334 316.754 371.999 320.156C374.663 323.558 379.528 325.266 386.595 325.28C388.653 325.28 390.591 325.228 392.44 325.106C394.288 324.983 396.096 324.808 397.935 324.573C398.242 324.456 398.571 324.411 398.898 324.441C399.225 324.471 399.541 324.576 399.823 324.747C400.13 325.022 400.365 325.371 400.506 325.763C400.648 326.155 400.691 326.577 400.632 326.991Z" fill="#99E83F"/>
</g>
<defs>
<clipPath id="clip0_423_62">
<rect width="512" height="512" fill="white"/>
</clipPath>
</defs>
</svg>
